!!!COM: konami
!!!OTL: morning-music
!!!RNB: hooktheoryid: EzngRRWEgJj
**kern	**text
*clefG2	*
*k[f#]	*
*M4/4	*
=1	=1
8g	G/B
8a	.
8b	G
8g	.
[4ccL	D/A
8cc]J	D/F#
16b	.
16a	.
=2	=2
8b	G
8g	.
8e	A/C#
8a	.
8.f#	D
16e	.
4d	.
=3	=3
8g	G
8a	.
8b	G7/F
8g	.
4.g	C/E
8a	.
=4	=4
8b	G/D
8cc	.
8.a	D
16g	.
[4gL	Gsus4
4g]J	G
=5	=5
8r	Em
8b	.
8e	Em/G
8g	.
4.c	Am
16d	.
16e	.
=6	=6
8f#	D
8g	.
8a	D/F#
8c	.
4B	G
8r	.
16c	.
16d	.
=7	=7
8e	C
8f#	.
8g	C/E
8B	.
4c	Am
[4g	.
=8	=8
8g]	D
16f#	.
16e	.
8.f#	.
16g	.
2g	Em
=9	=9
8g	Am
8e	.
8f#	.
8g	.
[2a	F#dim/A
=10	=10
8a]	B7
8f#	.
8g	.
8a	.
[2b	B7/D#
=11	=11
8b]	E7
8cc	.
8dd	.
8b	.
4.cc	Am
8b	.
=12	=12
8a	D7
8b	.
8cc	.
8a	.
4.b	G
8a	.
=13	=13
8g	C
8c	.
8e	.
8g	.
8f#	D
8g	.
8a	.
8f#	.
=14	=14
8g	G
8f#	.
8e	.
8d	.
4.c#	A7
8d	.
=15	=15
8d	D
16f#	.
16g	.
16a	.
16g	.
16f#	.
16a	.
8g	Gm/D
8a	.
8a#	.
8g	.
=16	=16
2f#	D
2r	.
*-	*-